X: 494
T: Yuo diedao
%%abc-version 2.0
%%abcx-abcm2ps-target-version 5.9.1 (29 Sep 2008)
%%abc-creator hum2abc beta
%%abcx-conversion-date 2013/10/02 07:52:30
%%abc-edited-by Helmut Schaffrath
%%humdrum-veritas 1137511453
%%humdrum-veritas-data 3467848817
%%continueall 1
%%barnumbers 0
L: 1/8
M: 2/4
K: G
B> Ad2 [I:setbarnb 1]| 
c> BA2 | 
B> Ad2 | 
c> BA2 | 
d e d G | 
A G F E | 
D2E G | 
D4 | 
G2F E | 
D2D2 | 
B> Ad2 | 
c> BA2 | 
d e d G | 
A G F E | 
D2E G | 
D4 |]  



